svg/gapDownArrow.svg

<svg width="284" height="284" viewBox="0 0 284 284" fill="none" xmlns="http://www.w3.org/2000/svg">
<path fill-rule="evenodd" clip-rule="evenodd" d="M248.172 125.954C247.358 124.177 245.581 123.037 243.626 123.037H213.692V58.1401C213.692 55.3791 211.453 53.1401 208.692 53.1401H175.381C172.619 53.1401 170.381 55.3791 170.381 58.1401V123.037H140.448C138.493 123.037 136.717 124.177 135.902 125.954C135.088 127.732 135.385 129.821 136.662 131.302L188.25 191.118C189.199 192.22 190.582 192.852 192.036 192.852C193.49 192.852 194.873 192.22 195.822 191.118L247.412 131.302C248.69 129.821 248.986 127.732 248.172 125.954Z" fill="#1A1919"/>
<path fill-rule="evenodd" clip-rule="evenodd" d="M47.8386 110.231H119.839C122.6 110.231 124.839 107.992 124.839 105.231C124.839 102.47 122.6 100.231 119.839 100.231H47.8386C45.0776 100.231 42.8386 102.47 42.8386 105.231C42.8386 107.992 45.0776 110.231 47.8386 110.231Z" fill="#1A1919"/>
<path fill-rule="evenodd" clip-rule="evenodd" d="M47.8386 156.471H119.839C122.6 156.471 124.839 154.233 124.839 151.471C124.839 148.709 122.6 146.471 119.839 146.471H47.8386C45.0776 146.471 42.8386 148.709 42.8386 151.471C42.8386 154.233 45.0776 156.471 47.8386 156.471Z" fill="#1A1919"/>
<path fill-rule="evenodd" clip-rule="evenodd" d="M220.845 210.387H45.8452C40.3232 210.387 35.8452 214.866 35.8452 220.387C35.8452 225.91 40.3232 230.387 45.8452 230.387H220.845C226.367 230.387 230.845 225.91 230.845 220.387C230.845 214.866 226.367 210.387 220.845 210.387Z" fill="#1A1919"/>
</svg>

<svg width="284" height="284" viewBox="0 0 284 284" xmlns="http://www.w3.org/2000/svg">
    <g fill="#1A1918" fill-rule="evenodd">
        <path d="M248.172 125.954a5.001 5.001 0 0 0-4.546-2.917h-29.934V58.14a5 5 0 0 0-5-5h-33.31a5 5 0 0 0-5 5v64.897h-29.934a5.001 5.001 0 0 0-3.786 8.265l51.588 59.816a4.996 4.996 0 0 0 3.786 1.734 4.996 4.996 0 0 0 3.786-1.734l51.59-59.816a5 5 0 0 0 .76-5.348M47.839 110.232h72a5 5 0 0 0 0-10h-72a5 5 0 0 0 0 10M47.839 156.471h72a5 5 0 1 0 0-10h-72a5 5 0 1 0 0 10M220.845 210.387h-175c-5.522 0-10 4.48-10 10 0 5.523 4.478 10 10 10h175c5.522 0 10-4.477 10-10 0-5.52-4.478-10-10-10"/>
    </g>
</svg>
